X:1
T:[ID 3-7b]
T:[ID 3-7b]
T:Bezeichnung standardisiert: March March In dieser Quelle auch als: Marsch
T:Urheber unbekannt Erstbeleg: 1767 (Datum in der schriftlichen Quelle) Datum in der hier transkribierten schriftlichen Quelle: 1799
C:Urheber unbekannt
C:Erstbeleg: 1767 (Datum in der schriftlichen Quelle)
C:Datum in der hier transkribierten schriftlichen Quelle: 1799
%%score 1 2
L:1/8
M:4/4
K:D
V:1 treble nm="Primo"
V:2 treble nm="Secondo"
V:1
 d2 DD FFAA | d>fec d2 f2 | e>dcB ABcd | e2 e>e e4 :: A2 z a (ag)(gf) | A2 z g (gf)(fe) | %6
 dbag f2 Te2 | d2 d>d d4 :| %8
V:2
 !fermata!F2 FF DDFF | FAGE F2 d2 | cBA^G AGAB | c2 c>c c4 :: A2 z f (fe)(ed) | A2 z e (ed)(dc) | %6
 Bgfe d2 AG | F2 F>F F4 :| %8

